X: 9
T: The Beauty Spot
R: reel
M: 4/4
L: 1/8
K: Emix
B3A B2ec | dcdA FAA2 | B3A B2ec | dABd FEE2 |
B3A B2ec | dcdA FAA2 | B3B c2ec | dcdA FEEd ||
fee2 fede | fee2 faba | fee2 fedB | Bcde faed |
fee2 fede | fede faa2 | bff2 afed | ABde faed ||


Tune 1270	Setting 14582

